X:19046
T:Xiraldilla (CT 280)
R:Xiraldilla
C:Tradicional
S:Música Tradicional Asturiana, (C) Tello & Tito. Asturies, 2001.
S:http://pagina.de/MusTradAst <telloytito@asturies.org>
N:Xiraldilla, transcrita en Uviéu
O:Uviéu
A:Asturies
Z:Cancioneru de Torner 280
M:2/4
L:1/8
Q:1/4=160
W:¿Qué llevas en esa falda
W:que tanto vuelo le das?
W:Llevo rosas y claveles
W:para el Cristo de Candás,
W:llevo rosas y claveles
W:para el Cristo de Candás.
K:G
|B3 c|de dc|d2 d2|B3 c|de dc|d4|
e3 d|cB AG|F2 F2|d3 e|dc BA|B4|
e3 d|cB AG|F2 F2|d3 e|dc BA|G4||


